X:8
T:Eienenn an dour beo
M:C
L:1/8
K:Bb
z2B,C|"Sib"D2G2 "Solm"G2F2|"Sib"F4 z2B,C|"Solm"D3F "Sib"F2D2|"Dom"C4 "Fa"z2DE|F2B2 "Solm"B2G2|\
"Rem"F4 z2GB|"Mib"B3c "Fa"c2B2|"Sib"B4 z2B,C|
D2DE D2C2|B,4 zA,B,C|C6 CD|E2EF E2D2|C4 zB,CD|D6 DE|F4 E2D2|C4 z2B,C|
